X:1
T:Jesu Bleibet Meine Freude
T:Jesu Bleibet Meine Freude
T:Jesu, Joy of Man's Desiring
T:J. S. Bach
C:J. S. Bach
%%score 1 2
L:1/8
M:3/4
K:G
V:1 treble+8 nm="Flauta doce Soprano" snm="S. fla. doce"
V:2 treble nm="Flauta doce Tenor" snm="T. Fla. Doce"
V:1
 (3z GA (3Bdc (3ced | (3dgf (3gdB (3GAB | (3cde (3dcB (3ABG | (3FGA (3DFA (3cBA | %4
 (3BGA (3Bdc (3ced | (3dgf (3gdB (3GAB | (3Edc (3BAG (3DGF | (3GBd (3gdB (3GBd | B4 c2 | d4 d2 | %10
 c4 B2 | (3ADE (3FAG (3AcB | (3cAF (3DFA (3cBA | B4 c2 | d4 B2 | (AB/c/) (B2 A2) | %16
 (3GBA (3Bdc (3ced | (3dgf (3gdB (3GAB | (3cde (3dcB (3ABG | (3FGA (3DFA (3cBA | %20
 (3BGA (3Bdc (3ced | (3dgf (3gdB (3GAB | (3Edc (3BAG (3DGF | B4 c2 | d4 d2 | c4 B2 | %26
 (3ADE (3FAG (3AcB | (3cAF (3DFA (3cBA | B4 c2 | d4 B2 | AB/c/ B2 A2 | (3GBA (3Bdc (3ced | %32
 (3dgf (3gdB (3GAB | (3cde (3dcB (3ABG | (3FGA (3DFA (3cBA | (3BGA (3Bdc (3ced | %36
 (3dgf (3gdB (3GAB | (3Edc (3BAG (3DGF | (3GBd (3gdB (3GB^c | A4 B2 | c4 c2 | B3 c/d/ B2 | %42
 (3AcB (3ced (3d=fe | (3ea^g (3aec (3ABc | (3=fed (3cBA (3EA^G | c4 d2 | e4 c2 | d3 e/=f/ d2 | %48
 (3cg=f (3gec (3GA_B | (3AcB (3cA=F (3DE=F | (3ECD (3EG^F (3GBA | B4 c2 | d4 d2 | c2 B4 | %54
 (3ADE (3FAG (3AcB | (3cAF (3DFA (3cBA | B4 c2 | d4 B2 | AB/c/ TA4 | (3GBd (3gdB (3GBd | %60
 (3=fdB (3GBd (3ecA | (3^FAc (3dBG (3EGB | (3cAF (3DFA (3cBA | (3BGA (3Bdc (3ced | %64
 (3dgf (3gdB (3GAB | (3cde (3dcB (3ABG | (3FGA (3DFA (3cBA | (3BGA (3Bdc (3ced | %68
 (3dgf (3gdB (3GAB | (3Edc (3BAG (3DGF | G6 |] %71
V:2
 G2 g2 e2 | B2 e2 E2 | A2 B2 c2 | d2 D2 d2 | g2 e2 c2 | B2 e2 d2 | c2 ^c2 d2 | G6 | G2 F2 E2 | %9
 F2 E2 D2 | E2 F2 F2 | D2 D2 d2 | f2 d2 D2 | G2 F2 E2 | B2 B2 E2 | c2 d2 d2 | G2 g2 e2 | B2 e2 E2 | %18
 A2 B2 c2 | d2 D2 d2 | g2 e2 c2 | G2 e2 d2 | c2 ^c2 d2 | g2 f2 e2 | f2 e2 d2 | e2 f2 g2 | %26
 d2 D2 d2 | f2 d2 D2 | G2 F2 E2 | B2 B2 D2 | c2 d2 d2 | G2 g2 e2 | B2 e2 E2 | A2 B2 c2 | d2 D2 d2 | %35
 g2 e2 c2 | B2 e2 d2 | c2 ^c2 d2 | (G2 (3:2:2G2) g (3:2:2f2 e | d2 c2 B2 | a2 ag =fe | d2 B2 e2 | %42
 A2 =f2 d2 | c2 =f2 e2 | d2 ^d2 e2 | a2 A2 B2 | c2 A2 E2 | =f2 d2 g2 | c2 e2 c2 | =f2 d2 g2 | %50
 (c2 (3:2:2c2) c (3:2:2B2 d | g2 G2 e2 | B2 e2 E2 | A2 B2 c2 | d4 d2 | f2 d2 f2 | G2 F2 E2 | %57
 B2 B2 E2 | c2 d2 d2 | G4 G2 | G2 G2 G2- | G2 G2 G2 | G4 G2 | G2 g2 e2 | B2 e2 E2 | A2 B2 c2 | %66
 d2 D2 d2 | g2 e2 c2 | B2 e2 d2 | c2 ^c2 d2 | G6 |] %71

